Origami/48x48/apps/google-agenda.svg

<svg width="48" height="48" version="1" xmlns="http://www.w3.org/2000/svg">
 <path d="m44 42v-36c0-1.108-0.892-2-2-2h-36c-1.108 0-2 0.892-2 2v36c0 1.108 0.892 2 2 2h36c1.108 0 2-0.892 2-2z" style="fill:#4384f1"/>
 <path d="m44 11.000276v-4c0-1.108-0.892-2-2-2h-36c-1.108 0-2 0.892-2 2v4z" style="opacity:.2"/>
 <path d="m44 10v-4c0-1.108-0.892-2-2-2h-36c-1.108 0-2 0.892-2 2v4z" style="fill:#cccccc"/>
 <path d="m6 4c-1.108 0-2 0.892-2 2v1c0-1.108 0.892-2 2-2h36c1.108 0 2 0.892 2 2v-1c0-1.108-0.892-2-2-2h-36z" style="fill:#ffffff;opacity:.2"/>
 <path d="m6 45c-1.108 0-2-0.892-2-2v-1c0 1.108 0.892 2 2 2h36c1.108 0 2-0.892 2-2v1c0 1.108-0.892 2-2 2h-36z" style="opacity:.2"/>
 <path d="m13 19v2c1.166667 0 3.032684-0.148188 4.541016 0.171875 0.754166 0.160032 1.366726 0.438218 1.773437 0.851563 0.406711 0.413344 0.685547 0.975862 0.685547 2.015624 0 1.105783-0.222074 1.764738-0.488281 2.160157-0.266208 0.395418-0.58786 0.593526-1.048828 0.730469-0.731618 0.217345-1.776577 0.204693-2.748047 0.164062-0.112706-3e-3 -0.243651-0.01869-0.38086-0.03516-0.107181-0.038393-0.220132-0.058214-0.333984-0.05859-0.552285 0-1 0.447715-1 1s0.447715 1 1 1c0.03263-3.59e-4 0.06522-0.0023 0.09766-0.0059 0.431842 0.0068 1.029076 0.06786 1.732422 0.08008 0.08427 0.01491 0.125741 0.0015 0.210938 0.01953 0.773245 0.16408 1.560673 0.468466 2.09375 0.916016 0.533073 0.447606 0.86523 0.977463 0.86523 1.951212 0 1.006756-0.299563 1.539104-0.789062 1.96875-0.4895 0.429645-1.250855 0.730553-2.144532 0.896484-1.787353 0.331862-3.899739 0.173828-5.066406 0.173828v2s4 0 5.433594-0.228516c1.111203-0.177127 2.219968-0.584105 3.105468-1.361328 0.885501-0.777225 1.460938-1.980346 1.460938-3.449218-0.189277-1.697777-0.761923-3.066652-1.927734-3.923829 0.414266-0.261473 0.800848-0.489877 1.103515-0.939453 0.546293-0.811449 0.824219-1.688747 0.824219-3.058594 0-1.435863-0.471164-2.60296-1.251953-3.396484-0.780789-0.793523-1.793229-1.196891-2.789063-1.408203-0.995834-0.211313-2.914062-0.234375-2.914062-0.234375zm17.960938 0-3.960938 1v2l3.986328-1v14h-3.986328v2h10v-2h-4v-16z" style="opacity:.2"/>
 <path d="m13 18v2c1.166667 0 3.032684-0.148188 4.541016 0.171875 0.754166 0.160032 1.366726 0.438218 1.773437 0.851563 0.406711 0.413344 0.685547 0.975862 0.685547 2.015624 0 1.105783-0.222074 1.764738-0.488281 2.160157-0.266208 0.395418-0.58786 0.593526-1.048828 0.730469-0.731618 0.217345-1.776577 0.204693-2.748047 0.164062-0.112706-3e-3 -0.243651-0.01869-0.38086-0.03516-0.107181-0.038393-0.220132-0.058214-0.333984-0.05859-0.552285 0-1 0.447715-1 1s0.447715 1 1 1c0.03263-3.59e-4 0.06522-0.0023 0.09766-0.0059 0.431842 0.0068 1.029076 0.06786 1.732422 0.08008 0.08427 0.01491 0.125741 0.0015 0.210938 0.01953 0.773245 0.16408 1.560673 0.468466 2.09375 0.916016 0.533073 0.447606 0.86523 0.977463 0.86523 1.951212 0 1.006756-0.299563 1.539104-0.789062 1.96875-0.4895 0.429645-1.250855 0.730553-2.144532 0.896484-1.787353 0.331862-3.899739 0.173828-5.066406 0.173828v2s4 0 5.433594-0.228516c1.111203-0.177127 2.219968-0.584105 3.105468-1.361328 0.885501-0.777225 1.460938-1.980346 1.460938-3.449218-0.189277-1.697777-0.761923-3.066652-1.927734-3.923829 0.414266-0.261473 0.800848-0.489877 1.103515-0.939453 0.546293-0.811449 0.824219-1.688747 0.824219-3.058594 0-1.435863-0.471164-2.60296-1.251953-3.396484-0.780789-0.793523-1.793229-1.196891-2.789063-1.408203-0.995834-0.211313-2.914062-0.234375-2.914062-0.234375zm17.960938 0-3.960938 1v2l3.986328-1v14h-3.986328v2h10v-2h-4v-16z" style="fill:#ffffff"/>
</svg>

<svg xmlns="http://www.w3.org/2000/svg" width="48" height="48" version="1">
 <path style="fill:#4384f1" d="M 44,42 44,6 C 44,4.892 43.108,4 42,4 L 6,4 C 4.892,4 4,4.892 4,6 l 0,36 c 0,1.108 0.892,2 2,2 l 36,0 c 1.108,0 2,-0.892 2,-2 z"/>
 <path style="opacity:0.2" d="m 44,11.000276 0,-4 c 0,-1.108 -0.892,-2 -2,-2 l -36,0 c -1.108,0 -2,0.892 -2,2 l 0,4 z"/>
 <path style="fill:#cccccc" d="M 44,10 44,6 C 44,4.892 43.108,4 42,4 L 6,4 C 4.892,4 4,4.892 4,6 l 0,4 z"/>
 <path style="opacity:0.2;fill:#ffffff" d="M 6,4 C 4.892,4 4,4.892 4,6 L 4,7 C 4,5.892 4.892,5 6,5 l 36,0 c 1.108,0 2,0.892 2,2 L 44,6 C 44,4.892 43.108,4 42,4 L 6,4 Z"/>
 <path style="opacity:0.2" d="M 6,45 C 4.892,45 4,44.108 4,43 l 0,-1 c 0,1.108 0.892,2 2,2 l 36,0 c 1.108,0 2,-0.892 2,-2 l 0,1 c 0,1.108 -0.892,2 -2,2 L 6,45 Z"/>
 <path style="opacity:0.2" d="m 13,19 0,2 c 1.166667,0 3.032684,-0.148188 4.541016,0.171875 0.754166,0.160032 1.366726,0.438218 1.773437,0.851563 C 19.721164,22.436782 20,22.9993 20,24.039062 c 0,1.105783 -0.222074,1.764738 -0.488281,2.160157 -0.266208,0.395418 -0.58786,0.593526 -1.048828,0.730469 -0.731618,0.217345 -1.776577,0.204693 -2.748047,0.164062 -0.112706,-0.003 -0.243651,-0.01869 -0.38086,-0.03516 C 15.226803,27.020197 15.113852,27.000376 15,27 c -0.552285,0 -1,0.447715 -1,1 0,0.552285 0.447715,1 1,1 0.03263,-3.59e-4 0.06522,-0.0023 0.09766,-0.0059 0.431842,0.0068 1.029076,0.06786 1.732422,0.08008 0.08427,0.01491 0.125741,0.0015 0.210938,0.01953 0.773245,0.16408 1.560673,0.468466 2.09375,0.916016 C 19.667843,30.457332 20,30.987189 20,31.960938 c 0,1.006756 -0.299563,1.539104 -0.789062,1.96875 -0.4895,0.429645 -1.250855,0.730553 -2.144532,0.896484 C 15.279053,35.158034 13.166667,35 12,35 l 0,2 c 0,0 4,0 5.433594,-0.228516 1.111203,-0.177127 2.219968,-0.584105 3.105468,-1.361328 C 21.424563,34.632931 22,33.42981 22,31.960938 21.810723,30.263161 21.238077,28.894286 20.072266,28.037109 20.486532,27.775636 20.873114,27.547232 21.175781,27.097656 21.722074,26.286207 22,25.408909 22,24.039062 22,22.603199 21.528836,21.436102 20.748047,20.642578 19.967258,19.849055 18.954818,19.445687 17.958984,19.234375 16.96315,19.023062 15.044922,19 15.044922,19 Z M 30.960938,19 27,20 l 0,2 3.986328,-1 0,14 L 27,35 l 0,2 10,0 0,-2 -4,0 0,-16 z"/>
 <path style="fill:#ffffff" d="m 13,18 0,2 c 1.166667,0 3.032684,-0.148188 4.541016,0.171875 0.754166,0.160032 1.366726,0.438218 1.773437,0.851563 C 19.721164,21.436782 20,21.9993 20,23.039062 c 0,1.105783 -0.222074,1.764738 -0.488281,2.160157 -0.266208,0.395418 -0.58786,0.593526 -1.048828,0.730469 -0.731618,0.217345 -1.776577,0.204693 -2.748047,0.164062 -0.112706,-0.003 -0.243651,-0.01869 -0.38086,-0.03516 C 15.226803,26.020197 15.113852,26.000376 15,26 c -0.552285,0 -1,0.447715 -1,1 0,0.552285 0.447715,1 1,1 0.03263,-3.59e-4 0.06522,-0.0023 0.09766,-0.0059 0.431842,0.0068 1.029076,0.06786 1.732422,0.08008 0.08427,0.01491 0.125741,0.0015 0.210938,0.01953 0.773245,0.16408 1.560673,0.468466 2.09375,0.916016 C 19.667843,29.457332 20,29.987189 20,30.960938 c 0,1.006756 -0.299563,1.539104 -0.789062,1.96875 -0.4895,0.429645 -1.250855,0.730553 -2.144532,0.896484 C 15.279053,34.158034 13.166667,34 12,34 l 0,2 c 0,0 4,0 5.433594,-0.228516 1.111203,-0.177127 2.219968,-0.584105 3.105468,-1.361328 C 21.424563,33.632931 22,32.42981 22,30.960938 21.810723,29.263161 21.238077,27.894286 20.072266,27.037109 20.486532,26.775636 20.873114,26.547232 21.175781,26.097656 21.722074,25.286207 22,24.408909 22,23.039062 22,21.603199 21.528836,20.436102 20.748047,19.642578 19.967258,18.849055 18.954818,18.445687 17.958984,18.234375 16.96315,18.023062 15.044922,18 15.044922,18 Z M 30.960938,18 27,19 l 0,2 3.986328,-1 0,14 L 27,34 l 0,2 10,0 0,-2 -4,0 0,-16 z"/>
</svg>
